!!!!SEGMENT: pl-wnifc--13846--063_anonim--63-pomahaj-bih-wam.krn
!!!kernsource:
!!!cenid: 18xx:3285
!!!COM: Anonim
!!!COM-rismid: pe30004985
!!!CDT:
!!!CNT:
!!!GTL: Pieśni polskie i ruskie ludu galicyjskiego
!!!OTL: 63. Pomahaj Bih wam
!!!PDT: 1833
!!!AGN:
!!!SMS-siglum: PL-Wnifc
!!!SMS-shelfmark: 13846
!!!SMS-shelfwork: 063 G
!!!SMS-variant:
!!!SMS-altvar:
!!!NIFC-rismid: 1001037174
!!!URL-scan: http://repozytorium.nifc.pl/skany/pl-wnifc-nut--13846
!!!ONB-nifc:
!!!OMD: Moderato.
!!!key: G
**kern	**kern	**kern	**text
*part2	*part2	*part1	*part1
*staff3	*staff2	*staff1	*staff1
*I"Fortepian	*I"Fortepian	*I"Głos	*
*Ipiano	*Ipiano	*Ivox	*
*ICklav	*ICklav	*ICvox	*
*IGacmp	*IGacmp	*IGsolo	*
*clefF4	*clefG2	*clefG2	*
*k[f#]	*k[f#]	*k[f#]	*
*G:	*G:	*G:	*
*M2/4	*M2/4	*M2/4	*
=1	=1	=1	=1
!LO:TX:t=P:problem:mixed beam	!	!LO:TX:a:t=D.c.6.	!
8GG/L	8b\L	8b\	Po-
8G\J 8B\	8dd\J	8dd\	-ma-
8G\L 8B\ 8d\	(16dd\LL	(16dd\LL	-haj
.	16cc#X\)	16cc#X\JJ)	.
8G\J 8B-X\ 8c#X\ 8e\	(16ee\	(16ee\LL	Bih
.	16cc#\JJ)	16cc#\JJ)	.
=2	=2	=2	=2
4GG/	8.b\L 8.dd\	(8.dd\	wam,
.	16a#X\Jk 16cc#X\	16cc#X\)	.
4G\ 4Bn\ 4d\	4b\ 4dd\	4dd\	wam,
=3	=3	=3	=3
!LO:TX:t=P:problem:mixed beam	!	!	!
8GG/L	8g\L 8b\	8b\	cy
8G\J 8B\	8b\J 8dd\	8dd\	ra-
8G\L 8B\ 8d\	(16dd\LL	(16dd\LL	-dy
.	16cc#X\JJ)	16cc#X\JJ)	.
8G\J 8B-X\ 8c#X\ 8e\	(16ee\LL	(16ee\LL	wy
.	16cc#\JJ)	16cc#\JJ)	.
!!LO:PB:g=original
=4	=4	=4	=4
4G\ 4Bn\ 4d\	8.b\L 8.dd\	(8.dd\L	nam,
.	16a#X\Jk 16cc#X\	16cc#X\Jk)	.
4G\ 4B\ 4d\	4b\ 4dd\	4dd\	nam?
=5	=5	=5	=5
*^	*	*	*
!LO:TX:t=P:problem:mixed beam	!	!	!	!
8GG/L	4GG\	8g\L 8b\	8b\	Oj
8G\J 8B\ 8d\	.	8g\^>J 8b\	8b\	cy
!LO:TX:t=P:problem:mixed beam	!	!	!	!
8DD/L	4DD\	8f#\L 8a\	8a\	ra-
8D\J 8F#\ 8A\ 8d\	.	8f#\^>J 8a\	8a\	-dy,
=6	=6	=6	=6	=6
4GG/	8GG\L	8b\L 8dd\	8dd\	cy
.	8G\J 8B\ 8d\	8b\^<J 8dd\	8dd\	ne-
4D/	8D\L	8a\L 8cc\	8cc\	-ra-
.	8D\J 8F#\ 8d\	8a\^<J 8cc\	8cc\	-dy
!!LO:LB:g=original
=7	=7	=7	=7	=7
!LO:TX:t=P:problem:mixed beam	!	!	!	!
8GG/L	4GG\	8g\L 8b\	8b\	po-
8G\J 8B\ 8d\	.	8g\^<J 8b\	8b\	-ma-
4D/	8D\L	8f#/L 8a/	8a/	-haj
.	8D\J 8A\ 8c\	8f#/J 8a/	8a/	Bih
*v	*v	*	*	*
=8	=8	=8	=8
4G\^ 4B\	4d/^> 4g/	4g/	wam,
4G\^ 4B\	4d/^> 4g/	4g/	wam
!!LO:LB:g=original
==	==	==	==
*-	*-	*-	*-
!!!system-decoration: s1,{(s2,s3)}
!!!RDF**kern: < = below
!!!RDF**kern: > = above
!!!ENC: Marta Chmielewska
!!!END: 2021-11-10
